Numix-Light/16/status/indicator-keyboard-Fr-9.svg

<?xml version="1.0" encoding="UTF-8" standalone="no"?>
<svg
   xmlns:dc="http://purl.org/dc/elements/1.1/"
   xmlns:cc="http://creativecommons.org/ns#"
   xmlns:rdf="http://www.w3.org/1999/02/22-rdf-syntax-ns#"
   xmlns:svg="http://www.w3.org/2000/svg"
   xmlns="http://www.w3.org/2000/svg"
   xmlns:sodipodi="http://sodipodi.sourceforge.net/DTD/sodipodi-0.dtd"
   xmlns:inkscape="http://www.inkscape.org/namespaces/inkscape"
   viewBox="0 0 16 16"
   id="svg2"
   version="1.1"
   inkscape:version="0.91 r13725"
   sodipodi:docname="indicator-keyboard-Fr-9.svg">
  <metadata
     id="metadata14">
    <rdf:RDF>
      <cc:Work
         rdf:about="">
        <dc:format>image/svg+xml</dc:format>
        <dc:type
           rdf:resource="http://purl.org/dc/dcmitype/StillImage" />
      </cc:Work>
    </rdf:RDF>
  </metadata>
  <defs
     id="defs12" />
  <sodipodi:namedview
     pagecolor="#ffffff"
     bordercolor="#666666"
     borderopacity="1"
     objecttolerance="10"
     gridtolerance="10"
     guidetolerance="10"
     inkscape:pageopacity="0"
     inkscape:pageshadow="2"
     inkscape:window-width="640"
     inkscape:window-height="480"
     id="namedview10"
     showgrid="false"
     inkscape:zoom="14.75"
     inkscape:cx="8"
     inkscape:cy="8"
     inkscape:window-x="65"
     inkscape:window-y="24"
     inkscape:window-maximized="0"
     inkscape:current-layer="svg2" />
  <path
     style="fill:#353535;fill-opacity:1"
     d="M 1.5996094 0 C 0.71320937 2.9605947e-16 0 0.71320937 0 1.5996094 L 0 14.400391 C 2.9605947e-16 15.286791 0.71320937 16 1.5996094 16 L 14.400391 16 C 15.286791 16 16 15.286791 16 14.400391 L 16 1.5996094 C 16 0.71320937 15.286791 0 14.400391 0 L 1.5996094 0 z M 3.0351562 4.859375 L 6.5898438 4.859375 L 6.5898438 5.390625 L 3.6464844 5.390625 L 3.6464844 7.5859375 L 6.2558594 7.5859375 L 6.2558594 8.1171875 L 3.6464844 8.1171875 L 3.6464844 11.095703 L 3.0351562 11.095703 L 3.0351562 4.859375 z M 9.0996094 6.3535156 C 9.2916094 6.3535156 9.472625 6.3684375 9.640625 6.3984375 C 9.814625 6.4284375 9.934 6.4582812 10 6.4882812 L 9.8828125 6.9921875 C 9.8348125 6.9681875 9.7359375 6.9439219 9.5859375 6.9199219 C 9.4419375 6.8899219 9.2497656 6.875 9.0097656 6.875 C 8.7577656 6.875 8.5544375 6.8936875 8.3984375 6.9296875 C 8.2484375 6.9656875 8.1495625 6.9955312 8.1015625 7.0195312 L 8.1015625 11.095703 L 7.515625 11.095703 L 7.515625 6.6582031 C 7.665625 6.5922031 7.8727187 6.5269375 8.1367188 6.4609375 C 8.4007187 6.3889375 8.7216094 6.3535156 9.0996094 6.3535156 z M 11.667969 8.7539062 C 12.093069 8.7539062 12.414412 8.9047781 12.632812 9.2050781 C 12.855113 9.5014781 12.964844 9.9168718 12.964844 10.451172 C 12.964844 11.266272 12.770859 11.879569 12.380859 12.292969 C 11.990859 12.702469 11.420675 12.908203 10.671875 12.908203 L 10.660156 12.591797 C 10.917556 12.591797 11.154641 12.562406 11.369141 12.503906 C 11.583641 12.445406 11.767828 12.355275 11.923828 12.234375 C 12.083728 12.109575 12.213047 11.952819 12.310547 11.761719 C 12.411947 11.566719 12.480525 11.331594 12.515625 11.058594 C 12.410325 11.113194 12.282966 11.162178 12.134766 11.205078 C 11.986566 11.244078 11.829809 11.263672 11.662109 11.263672 C 11.443709 11.263672 11.257569 11.230363 11.105469 11.164062 C 10.953369 11.093863 10.829928 11.001772 10.736328 10.888672 C 10.642728 10.775572 10.57415 10.646247 10.53125 10.498047 C 10.48835 10.349847 10.46875 10.195056 10.46875 10.035156 C 10.46875 9.8869562 10.490309 9.7360844 10.537109 9.5839844 C 10.583909 9.4318844 10.656406 9.2966812 10.753906 9.1757812 C 10.855306 9.0509812 10.980706 8.9490938 11.128906 8.8710938 C 11.281006 8.7930937 11.461269 8.7539062 11.667969 8.7539062 z M 11.673828 9.0878906 C 11.529528 9.0878906 11.406088 9.1153219 11.304688 9.1699219 C 11.203288 9.2206219 11.120994 9.2892 11.058594 9.375 C 10.996194 9.4608 10.949169 9.5587751 10.917969 9.671875 C 10.890669 9.784975 10.876953 9.9025374 10.876953 10.023438 C 10.876953 10.331537 10.945531 10.560784 11.082031 10.708984 C 11.222431 10.857184 11.428166 10.929687 11.697266 10.929688 C 11.876666 10.929688 12.031463 10.910094 12.164062 10.871094 C 12.300563 10.828194 12.427922 10.781163 12.544922 10.726562 C 12.548855 10.679762 12.550781 10.634697 12.550781 10.591797 C 12.554715 10.548897 12.556641 10.499913 12.556641 10.445312 C 12.556641 10.262013 12.542925 10.087628 12.515625 9.9238281 C 12.492225 9.7600281 12.4452 9.6169874 12.375 9.4921875 C 12.3087 9.3673875 12.218569 9.2694188 12.105469 9.1992188 C 11.992369 9.1251188 11.849328 9.0878906 11.673828 9.0878906 z "
     id="path4" />
</svg>

<svg xmlns="http://www.w3.org/2000/svg" viewBox="0 0 16 16">
 <path d="m 1.6 0 c -0.886 0 -1.6 0.713 -1.6 1.6 l 0 12.801 c 0 0.886 0.713 1.6 1.6 1.6 l 12.801 0 c 0.886 0 1.6 -0.713 1.6 -1.6 l 0 -12.801 c 0 -0.886 -0.713 -1.6 -1.6 -1.6 l -12.801 0 z m 1.436 4.859 l 3.555 0 l 0 0.531 l -2.943 0 l 0 2.195 l 2.609 0 l 0 0.531 l -2.609 0 l 0 2.979 l -0.611 0 l 0 -6.236 z m 6.06 1.494 c 0.192 0 0.373 0.015 0.541 0.045 c 0.174 0.03 0.293 0.06 0.359 0.09 l -0.117 0.504 c -0.048 -0.024 -0.147 -0.048 -0.297 -0.072 c -0.144 -0.03 -0.336 -0.045 -0.576 -0.045 c -0.252 0 -0.455 0.019 -0.611 0.055 c -0.15 0.036 -0.249 0.066 -0.297 0.09 l 0 4.076 l -0.586 0 l 0 -4.437 c 0.15 -0.066 0.357 -0.131 0.621 -0.197 c 0.264 -0.072 0.585 -0.107 0.963 -0.107 z m 2.568 2.4 c 0.425 0 0.746 0.151 0.965 0.451 c 0.222 0.296 0.332 0.712 0.332 1.246 c 0 0.815 -0.194 1.428 -0.584 1.842 c -0.39 0.41 -0.96 0.615 -1.709 0.615 l -0.012 -0.316 c 0.257 0 0.494 -0.029 0.709 -0.088 c 0.214 -0.059 0.399 -0.149 0.555 -0.27 c 0.16 -0.125 0.289 -0.282 0.387 -0.473 c 0.101 -0.195 0.17 -0.43 0.205 -0.703 c -0.105 0.055 -0.233 0.104 -0.381 0.146 c -0.148 0.039 -0.305 0.059 -0.473 0.059 c -0.218 0 -0.405 -0.033 -0.557 -0.1 c -0.152 -0.07 -0.276 -0.162 -0.369 -0.275 c -0.094 -0.113 -0.162 -0.242 -0.205 -0.391 c -0.043 -0.148 -0.063 -0.303 -0.063 -0.463 c 0 -0.148 0.022 -0.299 0.068 -0.451 c 0.047 -0.152 0.119 -0.287 0.217 -0.408 c 0.101 -0.125 0.227 -0.227 0.375 -0.305 c 0.152 -0.078 0.332 -0.117 0.539 -0.117 z m 0.006 0.334 c -0.144 0 -0.268 0.027 -0.369 0.082 c -0.101 0.051 -0.184 0.119 -0.246 0.205 c -0.062 0.086 -0.109 0.184 -0.141 0.297 c -0.027 0.113 -0.041 0.231 -0.041 0.352 c 0 0.308 0.069 0.537 0.205 0.686 c 0.14 0.148 0.346 0.221 0.615 0.221 c 0.179 0 0.334 -0.02 0.467 -0.059 c 0.137 -0.043 0.264 -0.09 0.381 -0.145 c 0.004 -0.047 0.006 -0.092 0.006 -0.135 c 0.004 -0.043 0.006 -0.092 0.006 -0.146 c 0 -0.183 -0.014 -0.358 -0.041 -0.521 c -0.023 -0.164 -0.07 -0.307 -0.141 -0.432 c -0.066 -0.125 -0.156 -0.223 -0.27 -0.293 c -0.113 -0.074 -0.256 -0.111 -0.432 -0.111 z" style="fill:#353535;fill-opacity:1"/>
</svg>
